X:189
T:Sweet Clover Waltz
R:waltz
C:Bruce Osborne - Jan. 2003
Z:abc by bosborne@kos.net
M:3/4
L:1/8
K:Dmaj
FE|D2 F3 A|B2 A2 de|f3 f ed|B4 ef|\
g2 gf ed|c2 cd cB|A2 AB AG|F4 FE|\
D2 F3 A|B2 A2 de|f3 f ed|B4 ef|\
g2 gf ed|c2 cd cB|A3 g fe|d4||\
ag|f2 d3 A|B2 A2 DE|F2 B3 F|A4 ef|\
g2 e3 d|c2 A3 A|(3BcB A3 G|F3 A de|\
f2 d3 A|B2 A2 DE|F2 B3 F|A4 ef|\
g2 e3 d|c2 A3 A|A2 f3 e|d4||
